packages/tokens/icons/variant/size16Px.svg

<svg viewBox="0 0 16 16" fill="none" xmlns="http://www.w3.org/2000/svg" width="1em" height="1em"><circle cx="5" cy="14" r="0.5" stroke="currentColor" stroke-linecap="round"/><circle cx="11" cy="14" r="0.5" stroke="currentColor" stroke-linecap="round"/><circle cx="14" cy="8" r="0.5" stroke="currentColor" stroke-linecap="round"/><circle cx="2" cy="8" r="0.5" stroke="currentColor" stroke-linecap="round"/><path d="M7.30672 5.63607C6.92246 5.73904 6.59483 5.99044 6.39592 6.33496L5.33525 8.17208C4.92104 8.88952 5.16685 9.8069 5.88429 10.2211L7.2141 10.9889C7.93154 11.4031 8.84893 11.1573 9.26314 10.4398L10.3238 8.60273C10.5227 8.2582 10.5766 7.84877 10.4737 7.4645L10.1926 6.41571C9.97822 5.61551 9.15571 5.14064 8.35551 5.35505L7.30672 5.63607Z" stroke="currentColor" stroke-linecap="round"/><circle cx="8.50759" cy="7.08145" r="0.25" transform="rotate(30 8.50759 7.08145)" stroke="currentColor" stroke-width="0.5"/><circle cx="11" cy="2" r="0.5" stroke="currentColor" stroke-linecap="round"/><circle cx="5" cy="2" r="0.5" stroke="currentColor" stroke-linecap="round"/></svg>

<svg xmlns="http://www.w3.org/2000/svg" fill="none" viewBox="0 0 16 16" width="1em" height="1em"><circle cx="5" cy="14" r=".5" stroke="currentColor" stroke-linecap="round"/><circle cx="11" cy="14" r=".5" stroke="currentColor" stroke-linecap="round"/><circle cx="14" cy="8" r=".5" stroke="currentColor" stroke-linecap="round"/><circle cx="2" cy="8" r=".5" stroke="currentColor" stroke-linecap="round"/><path stroke="currentColor" stroke-linecap="round" d="M7.307 5.636a1.5 1.5 0 0 0-.911.699l-1.06 1.837a1.5 1.5 0 0 0 .548 2.05l1.33.767a1.5 1.5 0 0 0 2.05-.55l1.06-1.836a1.5 1.5 0 0 0 .15-1.138l-.281-1.05a1.5 1.5 0 0 0-1.837-1.06l-1.05.281Z"/><circle cx="8.508" cy="7.081" r=".25" stroke="currentColor" stroke-width=".5" transform="rotate(30 8.508 7.081)"/><circle cx="11" cy="2" r=".5" stroke="currentColor" stroke-linecap="round"/><circle cx="5" cy="2" r=".5" stroke="currentColor" stroke-linecap="round"/></svg>
